packages/core/assets/Icons/wifi_off.svg

<svg viewBox="0 0 20 20" fill="none" xmlns="http://www.w3.org/2000/svg">
<path d="M15.8748 18.25L8.62479 10.9583C8.19424 11.0556 7.78104 11.1875 7.38521 11.3542C6.98938 11.5208 6.61785 11.7222 6.27063 11.9583C5.97896 12.1528 5.65604 12.2535 5.30188 12.2604C4.94771 12.2674 4.65257 12.1458 4.41646 11.8958C4.16646 11.6458 4.05188 11.3438 4.07271 10.9896C4.09354 10.6354 4.24285 10.3542 4.52063 10.1458C4.84007 9.90972 5.17688 9.69445 5.53104 9.5C5.88521 9.30556 6.24979 9.125 6.62479 8.95833L4.74979 7.08333C4.38868 7.27778 4.03799 7.48264 3.69771 7.69792C3.35743 7.9132 3.02757 8.14583 2.70813 8.39583C2.43035 8.61806 2.11438 8.72917 1.76021 8.72917C1.40604 8.72917 1.11091 8.60417 0.874794 8.35417C0.624794 8.10417 0.506739 7.80556 0.520628 7.45833C0.534517 7.11111 0.68035 6.82639 0.958128 6.60417C1.26368 6.35417 1.57618 6.11458 1.89563 5.88542C2.21507 5.65625 2.55535 5.44444 2.91646 5.25L1.74979 4.08333C1.59702 3.93056 1.52063 3.73611 1.52063 3.5C1.52063 3.26389 1.59702 3.06944 1.74979 2.91667C1.90257 2.76389 2.09702 2.6875 2.33313 2.6875C2.56924 2.6875 2.76368 2.76389 2.91646 2.91667L17.0623 17.0625C17.229 17.2292 17.3123 17.4271 17.3123 17.6563C17.3123 17.8854 17.229 18.0833 17.0623 18.25C16.8956 18.4028 16.6977 18.4826 16.4685 18.4896C16.2394 18.4965 16.0415 18.4167 15.8748 18.25ZM9.99979 17.5C9.41646 17.5 8.92341 17.2951 8.52063 16.8854C8.11785 16.4757 7.91646 15.9861 7.91646 15.4167C7.91646 14.8333 8.11785 14.3403 8.52063 13.9375C8.92341 13.5347 9.41646 13.3333 9.99979 13.3333C10.5831 13.3333 11.0762 13.5347 11.479 13.9375C11.8817 14.3403 12.0831 14.8333 12.0831 15.4167C12.0831 15.9861 11.8817 16.4757 11.479 16.8854C11.0762 17.2951 10.5831 17.5 9.99979 17.5ZM15.6873 11.7708C15.4651 11.9931 15.2047 12.1007 14.906 12.0938C14.6074 12.0868 14.347 11.9722 14.1248 11.75L13.9165 11.5417L13.7081 11.3333L11.7081 9.33333C11.5276 9.15278 11.4929 8.96528 11.604 8.77083C11.7151 8.57639 11.9095 8.51389 12.1873 8.58333C12.8123 8.73611 13.406 8.95139 13.9685 9.22917C14.531 9.50695 15.0554 9.83333 15.5415 10.2083C15.7915 10.4028 15.9338 10.6563 15.9685 10.9688C16.0033 11.2813 15.9095 11.5486 15.6873 11.7708ZM19.1248 8.35417C18.8887 8.60417 18.597 8.73264 18.2498 8.73958C17.9026 8.74653 17.5901 8.63889 17.3123 8.41667C16.3123 7.59722 15.1908 6.96181 13.9477 6.51042C12.7047 6.05903 11.3887 5.83333 9.99979 5.83333C9.70813 5.83333 9.42688 5.84375 9.15604 5.86458C8.88521 5.88542 8.61091 5.91667 8.33313 5.95833C7.98591 6.01389 7.67341 5.94097 7.39563 5.73958C7.11785 5.53819 6.95118 5.26389 6.89563 4.91667C6.84007 4.56944 6.91646 4.25694 7.12479 3.97917C7.33313 3.70139 7.61091 3.53472 7.95813 3.47917C8.29146 3.42361 8.62827 3.38542 8.96854 3.36458C9.30882 3.34375 9.65257 3.33333 9.99979 3.33333C11.7359 3.33333 13.3713 3.62153 14.906 4.19792C16.4408 4.77431 17.8192 5.56944 19.0415 6.58333C19.3192 6.81945 19.4651 7.11111 19.479 7.45833C19.4928 7.80556 19.3748 8.10417 19.1248 8.35417Z" fill="currentColor"/>
</svg>

<svg xmlns="http://www.w3.org/2000/svg" width="20" height="20" fill="none" viewBox="0 0 20 20">
  <path fill="#201F1F" d="m15.875 18.25-7.25-7.292c-.43.098-.844.23-1.24.396a6.373 6.373 0 0 0-1.114.604 1.773 1.773 0 0 1-.97.302 1.134 1.134 0 0 1-.885-.364 1.133 1.133 0 0 1-.343-.906c.02-.355.17-.636.448-.844.32-.236.656-.452 1.01-.646s.719-.375 1.094-.542L4.75 7.083c-.361.195-.712.4-1.052.615-.34.215-.67.448-.99.698a1.476 1.476 0 0 1-.948.333c-.354 0-.65-.125-.885-.375a1.153 1.153 0 0 1-.354-.896c.014-.347.16-.632.437-.854.306-.25.618-.49.938-.719.32-.229.66-.44 1.02-.635L1.75 4.083a.79.79 0 0 1-.23-.583.79.79 0 0 1 .23-.583.79.79 0 0 1 .583-.23.79.79 0 0 1 .583.23l14.146 14.146c.167.166.25.364.25.593a.81.81 0 0 1-.25.594.891.891 0 0 1-.594.24.776.776 0 0 1-.593-.24ZM10 17.5a1.994 1.994 0 0 1-1.48-.615 2.024 2.024 0 0 1-.604-1.468c0-.584.202-1.077.605-1.48A2.012 2.012 0 0 1 10 13.334c.583 0 1.076.202 1.479.604.403.403.604.896.604 1.48 0 .57-.201 1.059-.604 1.468-.403.41-.896.615-1.48.615Zm5.687-5.73c-.222.223-.482.33-.781.324a1.109 1.109 0 0 1-.781-.344l-.209-.208-.208-.209-2-2c-.18-.18-.215-.368-.104-.562.111-.195.306-.257.583-.188a8.646 8.646 0 0 1 1.782.646 9.335 9.335 0 0 1 1.572.98c.25.194.393.447.428.76a.935.935 0 0 1-.282.802Zm3.438-3.416a1.19 1.19 0 0 1-.875.386 1.417 1.417 0 0 1-.938-.323 11.41 11.41 0 0 0-3.364-1.907A11.476 11.476 0 0 0 10 5.833a11.009 11.009 0 0 0-1.667.125 1.211 1.211 0 0 1-.937-.218 1.213 1.213 0 0 1-.5-.823 1.19 1.19 0 0 1 .229-.938 1.25 1.25 0 0 1 .833-.5 9.69 9.69 0 0 1 1.01-.114c.34-.021.685-.032 1.032-.032 1.736 0 3.371.289 4.906.865a14.297 14.297 0 0 1 4.135 2.385c.278.236.424.528.438.875.014.348-.104.646-.354.896Z"/>
</svg>
